lib/healthicons/icons/solid/typography/4.svg

<svg fill="none" height="48" viewBox="0 0 48 48" width="48" xmlns="http://www.w3.org/2000/svg"><path clip-rule="evenodd" d="m28.5796 10.086c.8435.2554 1.4204 1.0328 1.4204 1.9142v16h2c1.1046 0 2 .8954 2 2s-.8954 2-2 2h-2v4c0 1.1045-.8954 2-2 2s-2-.8955-2-2v-4h-10c-.7376 0-1.4153-.406-1.7633-1.0563-.3481-.6503-.3099-1.4394.0992-2.0531l12-18c.4889-.7334 1.4002-1.06023 2.2437-.8048zm-2.5796 17.9142v-9.3945l-6.263 9.3945z" fill="#333" fill-rule="evenodd"/></svg>

<svg width="48" height="48" viewBox="0 0 48 48" fill="none" xmlns="http://www.w3.org/2000/svg">
<path fill-rule="evenodd" clip-rule="evenodd" d="M28.5796 10.086C29.4231 10.3414 30 11.1188 30 12.0002V28.0002H32C33.1046 28.0002 34 28.8956 34 30.0002C34 31.1048 33.1046 32.0002 32 32.0002H30V36.0002C30 37.1047 29.1046 38.0002 28 38.0002C26.8954 38.0002 26 37.1047 26 36.0002V32.0002H16C15.2624 32.0002 14.5847 31.5942 14.2367 30.9439C13.8886 30.2936 13.9268 29.5045 14.3359 28.8908L26.3359 10.8908C26.8248 10.1574 27.7361 9.83057 28.5796 10.086ZM26 28.0002V18.6057L19.737 28.0002H26Z" fill="#333333"/>
</svg>
